!!!COM: Bach, Johann Sebastian
!!!CDT: 1685/3//-1750/7/28/
!!!OTL@@DE: Ach bleib bei uns, Herr Jesu Christ
!!!AGN: 4-Part Chorale
!!!SCT: BH 177
!!!SCT: BWV 253
**harm	**root	**kern	**kern	**kern	**kern
!	!	!bass	!tenor	!alto	!soprno
*	*Iorgan	*Iorgan	*Iorgan	*Iorgan	*Iorgan
*M4/4	*M4/4	*M4/4	*M4/4	*M4/4	*M4/4
*met(c)	*met(c)	*met(c)	*met(c)	*met(c)	*met(c)
*MM60	*MM60	*MM60	*MM60	*MM60	*MM60
*k[b-]	*k[b-]	*k[b-]	*k[b-]	*k[b-]	*k[b-]
*F:	*F:	*F:	*F:	*F:	*F:
I	4AA	4FF	4c	4f	4a
=1	=1	=1	=1	=1	=1
I	4AA	4F	4c	4f	8a
.	.	.	.	.	8b-
Vb	4EE	4E	4c	4g	4cc
I	4AA	4F	4c	4f	4a
IVb	4DD	4D	8c	4f	4f
.	.	.	8B-	.	.
=2	=2	=2	=2	=2	=2
IV/IV	4GG	4E-	4B-	8e-	4g
.	.	.	.	8d	.
V/IV	4AA	4F	4F	4c	4a
I/IV;	4DD;	4BB-;	4F;	4d;	4b-;
I	4AA	4FF	4F	4c	4a
=3	=3	=3	=3	=3	=3
V	4EE	4C	4E	8c	4g
.	.	.	.	8B-	.
vi	4FF#	8D	4F	4A	4f
.	.	8C	.	.	.
IV	4DD	8BB-	2B-	2d	4.f
.	.	8C	.	.	.
IVb	4DD	8D	.	.	.
.	.	8E	.	.	8g
=4	=4	=4	=4	=4	=4
I	4AA	4F	8A	4c	4a
.	.	.	8G	.	.
Ib	4AA	8AA	4F	4c	4a
.	.	8BB-	.	.	.
V	4EE	4C	4F	4.c	8g
.	.	.	.	.	8f
V	4EE	4C	4E	.	4g
.	.	.	.	8B-	.
!!linebreak: 2
=5	=5	=5	=5	=5	=5
I;	2.AA;	2.FF;	2.C;	2.A;	2.f;
I	4AA	4FF	4c	4f	4a
=6	=6	=6	=6	=6	=6
V	4EE	4C	8c	4e	4g
.	.	.	8B-	.	.
Vb/vi	4CC#	4C#	4A	4e	4a
vi	4FF#	4D	4A	8d	4f
.	.	.	.	8c	.
V/V	4BB	8G	4G	4B	4d
.	.	8F	.	.	.
=7	=7	=7	=7	=7	=7
Vb	4EE	4E	4G	4.c	4e
viib/V	4DD#	4D	4F	.	4f
.	.	.	.	8B	.
V;	4EE;	4C;	4E;	4c;	4g;
V/vi	4CC#	4AA	4E	4c#	4a
=8	=8	=8	=8	=8	=8
vi	4FF#	8D	4F	4A	4f
.	.	8C	.	.	.
IVb	4DD	8D	4B-	4d	4f
.	.	8E	.	.	.
I	4AA	8F	8A	4c	4.f
.	.	8G	8B-	.	.
vib	8FF#	8F	8A	8d	.
vii	8GG#	8E	8G	8e	8g
=9	=9	=9	=9	=9	=9
vi	4FF#	4D	4F	4f	4a
Ib	4AA	8AA	4F	4c	4a
.	.	8BB-	.	.	.
V	4EE	4C	4F	4.c	8g
.	.	.	.	.	8f
V	4EE	4C	4E	.	4g
.	.	.	.	8B-	.
=10	=10	=10	=10	=10	=10
I;	2.AA;	2.FF;	2.C;	2.A;	2.f;
====	====	====	====	====	====
*-	*-	*-	*-	*-	*-
!!chor2scor: -l 2 -s 0.6 -o %b.pmx
!!!YEC: Copyright 1994, David Huron
!!!YEC: Changes/Additions 2001 by Craig Stuart Sapp
!!!YEN: United States of America
!!!SMA: 371 Bach Chorales, edited by Ludwig Erk, C.F. Peters
!!!PDT: 1850, 1865
!!!ONB: Harmony and Root analysis done manually
